!!!OTL: Mir gin net heem (286), S. 600
!!!id: T0476
**kern
*clefG2
*k[]
*C:
{16c
=1
16c
4.g
8a
4g
4f
=2
4.e
8f
4e}
=3
{4c
=4
4d
4e
4f
4e
=5
2d}
4.r
=6
{8g
=7
8cc
8cc
8cc
8cc
8b
8b
8b}
=8
{8b
=9
16a
16a
8a
16b
16a
8a
8a
8a
4g}
==
*-
!!!minrhy: 16
!!!meters: 4/4 ]  ZZ[4
!!!cut: Mir gin net heem (286), S. 600
!!!reg: Luxemburg
!!!trd: Singendes Volk, Esch-Alzette, 1937 posth.
!!!rhy1:   X__.X_X__X__  X__.X_X__   (x2)
!!!rhy2: X__  X__X__X__X__  X___0_.
!!!key: T0476  16  C 4/4 ]  ZZ[4
!!!mod: HEPTATONIK IONISCH]  AMBITUS[8
!!!kad: 3275
!!!akz: 5533_242_+17_66_
!!!fot: 'a__b__c__d__
!!!for: 'a__b__c__d__
!!!fok: '\__^a_/__\__
!! PHRAS[VORWIEGEND AUFTAKTIG]
!!!fkt: Abschiedslied nach einem Fest, Hochzeitslied?
!!!bem: Hochzeitsg&auml;ste, um 1890
!! THILL; Mathias
!! PR[43] 2K[0] 2G[5] 3K[10] 3G[5] 4A[0] 4Ü[0] 5A[0] 6K[0] 6G[0]
!! 7K[0] 7G[0] 8A[0] MEHR[0] SI[19] ABS[21] SR[5] SP[14]
!! ST[8] 2k[10] 2g[19] 3k[5] 3g[0] 4d[0] 4ü[0] 5d[5] 6k[0] 6g[0]
!! 7k[0] 7g[0] 8d[0] mehr[0] si[38] dm[-19] sr[29] sp[10]
!! 1F[74] 2F[13] 3F[0] 4F[0] LF[0] 2P[13] 3P[0] 4P[0] TRI[0] DF[3] AB[23]
!! TF[0] U3K[0] U3[0] U4[0] U4Ü[0] U5[0] U6K[0] U6[0] U7K[0] U7[0]
!! N1[9] N2K[0] N2[0] N3K[0] N3[18] N4[9] N4Ü[0] N5[27] N6K[0] N6[18]
!!!n7k: 0] N7[14] O1[5] O2K[0] O2[0] O3K[0] O3[0] HÖ[0
!!!RNB: symbol: &auml;      = a umlaut  (UTF-8: Å„)
